src/assets/target2.svg

<svg width="81" height="80" viewBox="0 0 81 80" fill="none" xmlns="http://www.w3.org/2000/svg">
<path fill-rule="evenodd" clip-rule="evenodd" d="M56.3318 5.36692L51.9671 9.72197L51.1565 9.31125C47.6918 7.55549 42.77 6.3532 39.0195 6.34649C37.6135 6.34405 37.434 6.37574 37.1532 6.67723C36.766 7.09282 36.7546 7.72475 37.1263 8.18376C37.3869 8.50551 37.5758 8.54314 39.4562 8.64749C42.9578 8.84158 46.5874 9.74635 49.74 11.2111L51.1299 11.8569L51.2204 12.9471C51.27 13.5466 51.3556 14.916 51.4105 15.9902L51.5101 17.9432L50.4605 17.2662C42.8274 12.3423 33.1576 12.3147 25.617 17.1953C21.3713 19.9433 18.087 24.1466 16.4228 28.9619C15.5226 31.5668 15.2858 33.1084 15.2876 36.3555C15.289 38.899 15.3399 39.5535 15.6417 40.9077C16.314 43.9245 17.4503 46.602 19.1406 49.1523C20.3222 50.9354 23.4074 54.004 25.2444 55.2235C34.2576 61.2067 45.9304 60.22 53.6425 52.8231C57.1266 49.4814 59.3174 45.5697 60.3328 40.8783C60.7869 38.7805 60.8246 34.2455 60.4053 32.1715C59.7444 28.9033 58.6346 26.244 56.7223 23.3464L56.4314 22.9056L59.0149 23.0095C60.4359 23.0667 61.7892 23.1511 62.0223 23.1969C62.3715 23.2656 62.5549 23.4964 63.063 24.5068C63.4021 25.1814 63.9446 26.5294 64.2684 27.5025C66.2052 33.3203 66.1977 39.4831 64.2471 45.2496C63.7226 46.8003 63.6595 47.1196 63.8076 47.4769C63.9747 47.8804 64.511 48.2383 64.9487 48.2383C65.6421 48.2383 66.2861 46.9176 67.0775 43.8726C68.0792 40.019 68.2911 35.2117 67.6275 31.4043C67.2146 29.0363 66.4748 26.5218 65.6226 24.5912C65.2796 23.8138 64.9212 22.9888 64.8265 22.7579C64.6574 22.3464 64.7395 22.2526 69.0296 17.9531C71.4361 15.5412 73.4042 13.4678 73.403 13.3455C73.3981 12.8149 73.186 12.4108 72.811 12.2169C72.5389 12.0761 71.1844 11.9444 68.6448 11.8117L64.8819 11.6148L63.8245 10.5408L62.7669 9.4668L62.5942 5.88672C62.4993 3.91768 62.3888 2.15064 62.3489 1.96006C62.2363 1.42305 61.7318 1.01172 61.1856 1.01172C60.7482 1.01172 60.2348 1.47241 56.3318 5.36692ZM56.7619 8.28933L53.4577 11.5996L53.6019 13.8086C53.6813 15.0235 53.7477 16.0855 53.7496 16.1686C53.7512 16.2517 55.2634 14.8121 57.1097 12.9693L60.4666 9.61914L60.3666 7.41016C60.3116 6.19521 60.2214 5.1512 60.1664 5.09011C60.1113 5.02902 58.5792 6.46867 56.7619 8.28933ZM31.5106 6.96592C22.52 8.99164 14.9427 14.9966 10.9574 23.2539C6.28489 32.9354 7.07038 44.1675 13.0403 53.0371C15.069 56.0512 17.1476 58.2297 20.1922 60.5327C20.9337 61.0937 21.5255 61.6532 21.5174 61.7859C21.5095 61.9175 20.6604 64.9975 19.6305 68.63C17.7608 75.2252 17.7585 75.2357 17.943 76.0602C18.1912 77.1691 18.8964 78.0705 19.9335 78.605C20.659 78.9788 20.8962 79.0268 21.7164 78.9659C22.3706 78.9171 22.8754 78.7707 23.3523 78.4912C24.5063 77.8149 24.7086 77.4069 25.8702 73.4131L26.1915 72.3086H37.9852H49.7789L50.1002 73.4131C51.2618 77.4069 51.4641 77.8149 52.6181 78.4912C53.0949 78.7707 53.5998 78.9171 54.254 78.9659C55.0742 79.0268 55.3114 78.9788 56.0369 78.605C57.097 78.0588 57.7845 77.1673 58.0199 76.0335C58.1963 75.1838 58.1924 75.1663 56.266 68.3774L54.3353 61.5728L54.6639 61.3546C56.7839 59.947 59.2507 57.7319 60.9254 55.7319C62.4367 53.9273 63.9598 51.6537 63.9598 51.2027C63.9598 50.642 63.3932 50.0661 62.8442 50.0687C62.2094 50.0717 62.1472 50.1232 61.3719 51.2852C58.7475 55.2185 55.1277 58.5792 51.155 60.7705C48.8353 62.0499 45.567 63.1645 42.4793 63.7287C40.4245 64.1044 35.5166 64.0974 33.421 63.7161C26.5835 62.4715 20.5767 58.934 16.3228 53.6465C6.20902 41.0751 9.07979 22.3618 22.5077 13.3307C25.6315 11.2297 29.4326 9.6621 32.8434 9.06811C34.4382 8.79039 35.0372 7.87602 34.1835 7.02244C33.7319 6.57074 33.3043 6.56175 31.5106 6.96592ZM49.8285 23.4466C43.3567 29.9206 38.0614 35.3067 38.0614 35.4157C38.0614 35.7292 38.3353 36.1588 38.6 36.2603C38.7333 36.3114 39.0266 36.2554 39.2516 36.1356C39.4768 36.016 44.8691 30.7053 51.2347 24.334L62.8085 12.7501L62.2878 12.2129C62.0016 11.9176 61.7286 11.6758 61.6815 11.6758C61.6344 11.6758 56.3006 16.9726 49.8285 23.4466ZM61.4635 17.2857L58.1293 20.6319L59.7877 20.7262C60.6998 20.7782 61.7598 20.8493 62.1432 20.8844L62.8404 20.9482L66.1734 17.6126C68.0065 15.7781 69.4753 14.2478 69.4372 14.2122C69.3991 14.1764 68.3397 14.1005 67.0828 14.0434L64.7977 13.9396L61.4635 17.2857ZM36.3856 15.8867C31.3371 16.3543 26.6959 18.5742 23.249 22.1698C20.459 25.0802 18.7288 28.3652 17.8595 32.4026C17.4713 34.2059 17.4631 38.3557 17.8443 40.1641C19.2251 46.7147 23.1786 51.8421 29.1566 54.8349C30.3627 55.4388 32.9722 56.2572 34.5462 56.525C37.4633 57.0217 41.1134 56.7857 43.9877 55.9147C48.1087 54.6661 52.3888 51.5533 54.7758 48.0687C58.8994 42.049 59.5962 34.473 56.6334 27.8695C56.1205 26.7263 54.7013 24.3203 54.5399 24.3203C54.4813 24.3203 53.6594 25.0964 52.7136 26.045L50.9938 27.7697L51.6041 28.9014C52.9086 31.3204 53.4629 33.4975 53.4709 36.2356C53.4738 37.1813 53.398 38.4007 53.3026 38.9453C52.7325 42.1995 51.0171 45.3911 48.6462 47.6091C40.8342 54.9167 28.4111 52.5076 23.8634 42.8028C23.0505 41.0679 22.9856 40.6011 23.4875 40.099C23.7031 39.8834 24.0448 39.707 24.2468 39.707C24.6595 39.707 25.4168 40.2383 25.4168 40.5279C25.4168 40.9454 26.916 43.6706 27.6605 44.6061C29.4836 46.8974 32.0583 48.5029 35.1131 49.2537C36.6551 49.6327 39.5987 49.5923 41.1844 49.1703C42.9047 48.7125 44.9519 47.6818 46.2879 46.6004C48.4149 44.8791 49.7193 42.951 50.6421 40.1641C51.0388 38.9659 51.0712 38.6871 51.0768 36.4316C51.0839 33.6535 50.9236 32.859 49.9267 30.7247L49.3244 29.4357L47.4884 31.2718L45.6523 33.1078L45.8918 33.9142C46.9218 37.3824 45.6175 41.1083 42.6696 43.118C41.3473 44.0196 40.125 44.4439 38.5629 44.5441C36.9582 44.6469 35.688 44.3989 34.2744 43.707C31.5715 42.384 29.6956 39.3423 29.685 36.2656C29.6814 35.1876 30.1969 33.283 30.7577 32.3028C31.8098 30.4642 33.57 29.0605 35.6239 28.4226C36.9718 28.0041 39.0071 28.0046 40.3488 28.4237L41.3368 28.7323L43.1513 26.9199L44.966 25.1075L44.4462 24.7888C43.5267 24.2246 41.6215 23.5683 40.1649 23.3138C34.5834 22.3385 28.8881 25.1789 26.2729 30.2425C25.4121 31.9092 24.9791 33.4289 24.8247 35.3262C24.683 37.0665 24.4734 37.4219 23.5887 37.4219C23.0288 37.4219 22.6661 37.165 22.4795 36.6361C22.3337 36.2234 22.6484 33.49 22.9844 32.2507C23.3942 30.7386 24.5908 28.3011 25.5314 27.0625C27.2974 24.7373 29.8904 22.7915 32.5595 21.789C36.7805 20.2035 41.8192 20.5972 45.6022 22.8077L46.65 23.4201L48.3734 21.7018C49.3211 20.7567 50.0965 19.9406 50.0965 19.8883C50.0965 19.5286 46.3425 17.5332 44.5066 16.9169C42.2132 16.1471 38.5674 15.6846 36.3856 15.8867ZM36.2249 30.635C33.9164 31.4855 32.5051 33.1195 32.1018 35.4087C31.6535 37.954 33.1387 40.6794 35.5853 41.8008C36.7971 42.3563 38.9209 42.3845 40.2318 41.8624C42.5339 40.9454 44.2496 38.0943 43.9239 35.7266L43.8192 34.9656L42.121 36.6187C40.0869 38.5989 39.4654 38.8807 38.0192 38.4791C36.8143 38.1444 35.7829 36.7787 35.7829 35.5176C35.7829 34.5366 36.2555 33.7856 37.8846 32.1767C38.7273 31.3447 39.3819 30.6078 39.3394 30.539C39.217 30.3409 36.8228 30.4148 36.2249 30.635ZM21.9461 68.9199C21.0008 72.2499 20.2297 75.1576 20.2323 75.3811C20.2396 75.9987 20.3848 76.2593 20.8575 76.5037C21.4588 76.8148 21.8308 76.7825 22.3002 76.3789C22.6492 76.0786 22.939 75.21 24.4219 70.0186L26.1394 64.0059L25.0544 63.442C24.4578 63.132 23.901 62.8753 23.8172 62.8718C23.7334 62.8682 22.8914 65.5898 21.9461 68.9199ZM50.9151 63.442L49.8295 64.0059L51.5363 70.0088C53.0319 75.2682 53.2948 76.0559 53.6589 76.3692C54.1184 76.7643 54.5168 76.8172 55.0197 76.5494C55.5041 76.2913 55.7223 75.9496 55.7332 75.4316C55.7465 74.8043 52.3428 62.8634 52.1532 62.8718C52.0694 62.8753 51.5122 63.132 50.9151 63.442ZM28.244 65.0237C28.0091 65.7401 26.9403 69.6874 26.9403 69.8383C26.9403 69.9818 29.4229 70.0234 37.9852 70.0234C46.9165 70.0234 49.0301 69.9858 49.0301 69.8265C49.0301 69.6441 48.7052 68.458 47.9437 65.8597C47.6933 65.0052 47.5928 64.8369 47.3822 64.9196C46.5908 65.2304 43.3751 65.933 41.8241 66.1341C39.7524 66.4027 36.5749 66.4371 34.7058 66.2112C32.5822 65.9545 31.2737 65.6745 28.5772 64.8995C28.4302 64.8573 28.2803 64.9132 28.244 65.0237Z" fill="white"/>
</svg>

<svg xmlns="http://www.w3.org/2000/svg" width="81" height="80" fill="none" viewBox="0 0 81 80"><path fill="#fff" fill-rule="evenodd" d="m56.332 5.367-4.365 4.355-.81-.41c-3.465-1.758-8.387-2.96-12.137-2.967-1.407-.002-1.586.03-1.867.331-.387.416-.398 1.048-.027 1.507.26.322.45.36 2.33.463 3.502.195 7.131 1.1 10.284 2.564l1.39.646.09 1.09c.05.6.136 1.969.19 3.043l.1 1.953-1.05-.677c-7.633-4.924-17.302-4.951-24.843-.07-4.246 2.747-7.53 6.95-9.194 11.766-.9 2.605-1.137 4.146-1.135 7.393.001 2.544.052 3.199.354 4.553.672 3.017 1.808 5.694 3.499 8.244 1.181 1.783 4.266 4.852 6.103 6.072 9.014 5.983 20.686 4.996 28.399-2.4 3.484-3.343 5.674-7.254 6.69-11.946.454-2.097.492-6.632.072-8.706-.66-3.269-1.77-5.928-3.683-8.826l-.29-.44 2.583.104c1.42.057 2.774.141 3.007.187.35.069.533.3 1.041 1.31.34.674.882 2.022 1.205 2.996 1.937 5.817 1.93 11.98-.02 17.747-.525 1.55-.589 1.87-.44 2.227.167.403.703.761 1.14.761.694 0 1.338-1.32 2.13-4.365 1.001-3.854 1.213-8.661.55-12.469-.413-2.368-1.153-4.882-2.005-6.813-.343-.777-.702-1.602-.797-1.833-.169-.412-.086-.505 4.204-4.805 2.406-2.412 4.374-4.485 4.373-4.607-.005-.531-.217-.935-.592-1.13-.272-.14-1.627-.272-4.166-.404l-3.763-.197-1.058-1.074-1.057-1.074-.173-3.58c-.095-1.97-.205-3.736-.245-3.927a1.22 1.22 0 0 0-1.163-.948c-.438 0-.951.46-4.854 4.355m.43 2.922-3.304 3.31.144 2.21c.08 1.215.146 2.277.148 2.36.001.083 1.513-1.357 3.36-3.2l3.357-3.35-.1-2.209c-.055-1.215-.146-2.259-.2-2.32-.056-.061-1.588 1.379-3.405 3.2M31.51 6.966c-8.991 2.026-16.568 8.03-20.554 16.288-4.672 9.681-3.887 20.913 2.083 29.783 2.029 3.014 4.108 5.193 7.152 7.496.742.56 1.334 1.12 1.325 1.253-.008.131-.857 3.212-1.886 6.844-1.87 6.595-1.872 6.606-1.688 7.43.248 1.11.953 2.01 1.99 2.545.726.374.963.422 1.783.36.655-.048 1.16-.194 1.636-.474 1.154-.676 1.357-1.084 2.518-5.078l.322-1.104h23.587l.321 1.104c1.162 3.994 1.364 4.402 2.518 5.078.477.28.982.426 1.636.475.82.06 1.057.013 1.783-.361 1.06-.546 1.748-1.438 1.983-2.572.176-.85.172-.867-1.754-7.656l-1.93-6.804.328-.218c2.12-1.408 4.587-3.623 6.261-5.623 1.512-1.805 3.035-4.078 3.035-4.53 0-.56-.567-1.136-1.116-1.133-.635.003-.697.054-1.472 1.216-2.624 3.934-6.244 7.294-10.217 9.486-2.32 1.279-5.588 2.393-8.676 2.958-2.054.375-6.962.368-9.058-.013-6.837-1.245-12.844-4.782-17.098-10.07-10.114-12.57-7.243-31.284 6.185-40.315 3.124-2.101 6.925-3.669 10.335-4.263 1.595-.278 2.194-1.192 1.34-2.046-.451-.451-.879-.46-2.672-.056m18.318 16.48c-6.472 6.475-11.768 11.86-11.768 11.97 0 .313.274.743.539.844.133.051.427-.005.652-.124.225-.12 5.617-5.43 11.983-11.802L62.809 12.75l-.521-.537c-.286-.295-.56-.537-.606-.537-.048 0-5.381 5.297-11.854 11.77m11.635-6.16-3.335 3.346 1.659.094c.912.052 1.972.123 2.355.158l.697.064 3.333-3.335c1.834-1.835 3.302-3.365 3.264-3.4-.038-.037-1.097-.112-2.354-.17l-2.285-.103zm-25.078-1.4c-5.049.468-9.69 2.688-13.137 6.284-2.79 2.91-4.52 6.195-5.39 10.233-.388 1.803-.396 5.953-.015 7.761 1.381 6.55 5.335 11.678 11.313 14.67 1.206.605 3.815 1.423 5.39 1.691 2.916.497 6.566.26 9.44-.61 4.122-1.249 8.402-4.362 10.789-7.846 4.123-6.02 4.82-13.596 1.857-20.2-.513-1.143-1.932-3.549-2.093-3.549-.059 0-.88.776-1.826 1.725l-1.72 1.725.61 1.131c1.305 2.42 1.859 4.597 1.867 7.335.003.945-.073 2.165-.168 2.71-.57 3.254-2.286 6.445-4.657 8.663-7.812 7.308-20.235 4.899-24.783-4.806-.812-1.735-.877-2.202-.375-2.704.215-.216.557-.392.759-.392.413 0 1.17.531 1.17.82 0 .418 1.499 3.144 2.243 4.08 1.824 2.29 4.398 3.896 7.453 4.647 1.542.379 4.486.338 6.071-.084 1.72-.458 3.768-1.488 5.104-2.57 2.127-1.72 3.431-3.649 4.354-6.436.397-1.198.43-1.477.435-3.732.007-2.779-.153-3.573-1.15-5.707l-.603-1.29-1.836 1.837-1.836 1.836.24.806c1.03 3.468-.275 7.194-3.222 9.204-1.323.902-2.545 1.326-4.107 1.426-1.605.103-2.875-.145-4.289-.837-2.703-1.323-4.578-4.365-4.589-7.441-.004-1.078.512-2.983 1.073-3.963 1.052-1.839 2.812-3.242 4.866-3.88 1.348-.419 3.383-.418 4.725 0l.988.31 1.814-1.813 1.815-1.812-.52-.32c-.92-.563-2.825-1.22-4.281-1.474-5.582-.976-11.277 1.865-13.892 6.929-.86 1.666-1.294 3.186-1.448 5.083-.142 1.74-.352 2.096-1.236 2.096-.56 0-.923-.257-1.11-.786-.145-.413.17-3.146.505-4.385.41-1.512 1.607-3.95 2.547-5.188 1.766-2.326 4.36-4.271 7.029-5.274 4.22-1.586 9.26-1.192 13.042 1.019l1.048.612 1.723-1.718c.948-.945 1.724-1.761 1.724-1.814 0-.36-3.754-2.355-5.59-2.971-2.294-.77-5.94-1.232-8.121-1.03m-.161 14.749c-2.309.85-3.72 2.485-4.123 4.774-.448 2.545 1.037 5.27 3.483 6.392 1.212.555 3.336.584 4.647.061 2.302-.917 4.018-3.768 3.692-6.135l-.105-.761-1.698 1.653c-2.034 1.98-2.656 2.262-4.102 1.86-1.205-.335-2.236-1.7-2.236-2.961 0-.981.472-1.732 2.102-3.341.842-.832 1.497-1.57 1.454-1.638-.122-.198-2.516-.124-3.114.096M21.946 68.92c-.945 3.33-1.716 6.238-1.714 6.461.008.618.153.878.626 1.123.6.31.973.278 1.442-.125.35-.3.639-1.169 2.122-6.36l1.717-6.013-1.085-.564c-.596-.31-1.153-.567-1.237-.57s-.926 2.718-1.87 6.048m28.97-5.478-1.086.564 1.706 6.003c1.496 5.26 1.759 6.047 2.123 6.36.46.395.858.448 1.36.18.485-.258.703-.6.714-1.117.014-.628-3.39-12.569-3.58-12.56-.084.003-.64.26-1.238.57m-22.672 1.582c-.235.716-1.304 4.663-1.304 4.814 0 .144 2.483.185 11.045.185 8.932 0 11.045-.037 11.045-.197 0-.182-.325-1.368-1.086-3.966-.25-.855-.351-1.023-.562-.94-.791.31-4.007 1.013-5.558 1.214-2.072.269-5.25.303-7.118.077-2.124-.257-3.432-.537-6.129-1.311-.147-.043-.297.013-.333.124" clip-rule="evenodd"/></svg>
